X: 4
T:Passe Pieds de Saint Carreuc
M:4/4
L:1/8
Q:60
C:Traditionnel
R:Passe Pieds
A:Cotes d'Armor (Bretagne)
H:Festival Boqueho Mai 1998
Z:J.M HENRY <Jmarchenry:aol.COM>
K:G
EA Ac BA G2|BB BA/2B/2 c2 A2|EA Ac BA G2|BB BA/2B/2 c2 A2|!
BB BA/2B/2 cA G2|BB BA/2B/2 c2 A2|BB BA/2B/2 cA G2|BB BA/2B/2 c2 A2|!
